static/images/mobile/copyright/wikipedia-wordmark-roa_tara.svg

<?xml version="1.0" encoding="UTF-8"?>
<svg width="120px" height="19px" viewBox="0 0 120 19" version="1.1" xmlns="http://www.w3.org/2000/svg" xmlns:xlink="http://www.w3.org/1999/xlink">
    <title>roa-tara-wordmark</title>
    <g id="Page-1" stroke="none" stroke-width="1" fill="none" fill-rule="evenodd">
        <path d="M17.2023737,0.965838888 L17.2545812,1.0180464 L17.2545812,1.51401772 C17.2545812,1.64453648 17.1762699,1.72284775 17.0457512,1.72284775 L16.3670536,1.77505525 C15.2968006,1.85336651 14.9313471,2.24492282 14.9313471,2.97582792 L14.9313471,10.1543602 C14.9313471,14.8008284 13.7305687,18.1160051 8.37930494,18.1160051 C6.02996904,18.1160051 2.32323408,17.0196378 2.32323408,11.6944817 L2.32323408,2.92362042 C2.32323408,2.11440405 1.93167681,1.85336651 0.91363138,1.77505525 L0.20883003,1.72284775 C0.104415015,1.72284775 0,1.64453648 0,1.51401772 L0,1.0180464 L0.0522075074,0.965838888 C0.0522075074,0.965838888 2.32323505,1.0180464 3.34128048,1.0180464 C3.6545252,1.0180464 4.13309391,1.01224556 4.63196565,1.00451112 L5.00766032,0.998408154 C5.88258934,0.983603942 6.70866471,0.965838888 6.70866471,0.965838888 L6.76087221,1.0180464 L6.76087221,1.51401772 C6.76087221,1.64453648 6.68256095,1.72284775 6.55204218,1.72284775 L5.87334459,1.77505525 C4.80309165,1.85336651 4.43763813,2.19271531 4.43763813,2.92362042 L4.43776807,11.065187 C4.44049669,12.6949997 4.50052537,14.4199509 5.82113708,15.7405635 C6.60424872,16.4975724 7.67450456,17.0457512 8.92748377,17.0457512 C13.3390133,17.0457512 13.7305745,13.5478482 13.7305745,10.6242278 L13.7305745,2.97582792 C13.7305745,2.16661156 13.3651209,1.85336651 12.3209718,1.77505525 L11.6161704,1.72284775 C11.5117554,1.72284775 11.4073404,1.64453648 11.4073404,1.51401772 L11.4073404,1.0180464 L11.4595479,0.965838888 C11.4595479,0.965838888 12.2100851,0.986980771 13.0182817,1.00235669 L13.3661618,1.0085149 C13.7135319,1.01416319 14.053312,1.0180464 14.3309608,1.0180464 C14.5872519,1.0180464 14.9173241,1.01416319 15.26187,1.0085149 L15.6090441,1.00235669 C16.4201236,0.986980771 17.2023737,0.965838888 17.2023737,0.965838888 Z M15.9670078,5.79503333 C15.9670078,5.79503333 18.0292053,5.84724083 18.8384207,5.84724083 C19.543221,5.84724083 21.5532111,5.79503333 21.5532111,5.79503333 L21.5793148,5.84724083 L21.5793148,6.42152342 C21.5793148,6.49983468 21.5271073,6.55204218 21.4226923,6.55204218 L20.8745135,6.60424969 C20.0652981,6.68256095 19.7781558,6.89139098 19.7781558,7.41346606 L19.7781558,16.106016 C19.7781558,16.6802986 20.0391943,17.0196474 20.8745135,17.0979587 L21.4226923,17.1501662 C21.5010035,17.1501662 21.5793148,17.2023737 21.5793148,17.3067887 L21.5793148,17.8549675 L21.5532111,17.9071751 C21.5532111,17.9071751 19.5693248,17.8549675 18.7601094,17.8549675 C18.0292053,17.8549675 15.9931115,17.9071751 15.9931115,17.9071751 L15.940904,17.8549675 L15.940904,17.3067887 C15.940904,17.2023737 16.0192153,17.1501662 16.1236303,17.1501662 L16.6457054,17.0979587 C17.5071283,17.0196474 17.7681668,16.6019874 17.7681668,16.106016 L17.7681668,7.41346606 C17.7681668,6.83918347 17.4549208,6.68256095 16.6457054,6.60424969 L16.1236303,6.55204218 C16.0192153,6.55204218 15.940904,6.52593843 15.940904,6.44762717 L15.940904,5.84724083 Z M27.8606659,18.1160051 C29.8967568,18.1160051 31.1497408,17.3589962 32.3766153,15.7144597 L31.8545402,15.2967997 C30.6537695,16.7064024 29.7401352,17.2284775 27.9911847,17.2284775 C24.8326343,17.2284775 23.8928953,14.3309608 23.8928953,11.7466892 C23.8928953,7.36125855 25.9289901,6.34321215 27.8867697,6.34321215 C30.1577943,6.34321215 31.3063624,7.59619233 31.6196064,9.42345509 L32.298304,9.34514383 C32.1416825,8.27488993 32.0111627,7.17853227 31.985059,6.00386336 C30.9931173,6.00386336 29.8184455,5.5862033 27.7301471,5.5862033 C24.2844555,5.5862033 21.6218688,8.19657867 21.6218688,12.0077267 C21.6218688,15.0096584 23.8406927,18.1160051 27.8606659,18.1160051 M39.741802,18.1160051 C41.7778928,18.1160051 43.0308759,17.3589962 44.2577514,15.7144597 L43.7356763,15.2967997 C42.5349046,16.7064024 41.6212703,17.2284775 39.8723207,17.2284775 C36.7137694,17.2284775 35.7740314,14.3309608 35.7740314,11.7466892 C35.7740314,7.36125855 37.8101261,6.34321215 39.7679057,6.34321215 C42.0389304,6.34321215 43.1874975,7.59619233 43.5007425,9.42345509 L44.1794401,9.34514383 C44.0228176,8.27488993 43.8922988,7.17853227 43.8661951,6.00386336 C42.8742534,6.00386336 41.6995816,5.5862033 39.6112832,5.5862033 C36.1655906,5.5862033 33.5030048,8.19657867 33.5030048,12.0077267 C33.5030048,15.0096584 35.7218278,18.1160051 39.741802,18.1160051 M55.1730476,16.2626386 C55.1730476,16.7847136 54.8336988,17.0196474 54.0505862,17.0979587 L53.5285111,17.1501662 C53.4240961,17.1501662 53.3718886,17.2284775 53.3718886,17.3067887 L53.3718886,17.8549675 L53.3979923,17.9071751 C53.3979923,17.9071751 55.3818786,17.8549675 56.1127827,17.8549675 C56.8958953,17.8549675 58.9580919,17.9071751 58.9580919,17.9071751 L59.0102994,17.8549675 L59.0102994,17.3067887 C59.0102994,17.2284775 58.9319881,17.1501662 58.8275731,17.1501662 L58.305498,17.0979587 C57.4701789,17.0196474 57.1830366,16.8369211 57.1830366,16.2626386 L57.1830366,7.36125855 C57.1830366,6.83918347 57.4440751,6.68256095 58.305498,6.60424969 L58.8275731,6.55204218 C58.9319881,6.55204218 58.9841956,6.49983468 58.9841956,6.39541966 L58.9841956,5.84724083 L58.9580919,5.79503333 C58.9580919,5.79503333 56.8697916,5.84724083 56.1388865,5.84724083 C55.3296711,5.84724083 53.3979923,5.79503333 53.3979923,5.79503333 L53.3457848,5.84724083 L53.3457848,6.39541966 C53.3457848,6.49983468 53.4240961,6.55204218 53.5285111,6.55204218 L54.0505862,6.60424969 C54.8336988,6.68256095 55.1730476,6.78697597 55.1730476,7.36125855 L55.1730476,11.3029254 L49.090873,11.3029254 L49.090873,7.36125855 C49.090873,6.83918347 49.404119,6.68256095 50.1872306,6.60424969 L50.7354095,6.55204218 C50.8398245,6.55204218 50.892032,6.49983468 50.892032,6.39541966 L50.892032,5.84724083 L50.8659282,5.79503333 C50.8659282,5.79503333 48.7776279,5.84724083 48.0728266,5.84724083 C47.2636112,5.84724083 45.3058287,5.79503333 45.3058287,5.79503333 L45.2536212,5.84724083 L45.2536212,6.39541966 C45.2536212,6.49983468 45.3319324,6.55204218 45.4363474,6.55204218 L45.9584225,6.60424969 C46.7937426,6.68256095 47.0808839,6.78697597 47.0808839,7.36125855 L47.0808839,16.2626386 C47.0808839,16.7847136 46.8459492,17.0196474 45.9584225,17.0979587 L45.4363474,17.1501662 C45.3319324,17.1501662 45.2536212,17.2284775 45.2536212,17.3067887 L45.2536212,17.8549675 L45.3058287,17.9071751 C45.3058287,17.9071751 47.3419224,17.8549675 48.0728266,17.8549675 C48.8559392,17.8549675 50.8659282,17.9071751 50.8659282,17.9071751 L50.892032,17.8549675 L50.892032,17.3067887 C50.892032,17.2284775 50.8137207,17.1501662 50.7354095,17.1501662 L50.1872306,17.0979587 C49.3780152,17.0196474 49.090873,16.8369211 49.090873,16.2626386 L49.090873,12.1121417 L55.1730476,12.1121417 L55.1730476,16.2626386 M63.521204,7.41346606 C63.521204,6.89139098 63.8083453,6.68256095 64.6175616,6.60424969 L65.1657405,6.55204218 C65.2701555,6.55204218 65.322363,6.49983468 65.322363,6.42152342 L65.322363,5.84724083 L65.2962592,5.79503333 C65.2962592,5.79503333 63.2862692,5.84724083 62.5814688,5.84724083 C61.7722525,5.84724083 59.7100559,5.79503333 59.7100559,5.79503333 L59.6839522,5.84724083 L59.6839522,6.44762717 C59.6839522,6.52593843 59.7622634,6.55204218 59.8666785,6.55204218 L60.3887535,6.60424969 C61.1979689,6.68256095 61.5112149,6.83918347 61.5112149,7.41346606 L61.5112149,16.106016 C61.5112149,16.6019874 61.2501764,17.0196474 60.3887535,17.0979587 L59.8666785,17.1501662 C59.7622634,17.1501662 59.6839522,17.2023737 59.6839522,17.3067887 L59.6839522,17.8549675 L59.7361597,17.9071751 C59.7361597,17.9071751 61.7722525,17.8549675 62.5031576,17.8549675 C63.312373,17.8549675 65.2962592,17.9071751 65.2962592,17.9071751 L65.322363,17.8549675 L65.322363,17.3067887 C65.322363,17.2023737 65.2440517,17.1501662 65.1657405,17.1501662 L64.6175616,17.0979587 C63.7822415,17.0196474 63.521204,16.6802986 63.521204,16.106016 L63.521204,7.41346606 M69.792887,7.46567356 C69.792887,6.78697597 70.106134,6.55204218 71.3591122,6.55204218 C72.7948177,6.55204218 73.8128651,7.0480135 73.8128651,9.29293632 C73.8128651,11.3029254 73.0558553,12.2426605 71.489631,12.2426605 C70.9675569,12.2426605 70.3149621,12.2165567 69.792887,12.0077267 L69.792887,7.46567356 M67.782898,16.2365348 C67.782898,16.7325061 67.5218595,16.9674399 66.7126441,17.0718549 L66.1644653,17.1501662 C66.0600502,17.1762699 66.0078427,17.2023737 66.0078427,17.3067887 L66.0078427,17.8549675 L66.0339465,17.9071751 C66.0339465,17.9071751 67.991729,17.8549675 68.7226331,17.8549675 C69.5318485,17.8549675 71.6201498,17.9071751 71.6201498,17.9071751 L71.6462535,17.8549675 L71.6462535,17.3067887 C71.6462535,17.2023737 71.5679423,17.1762699 71.4635273,17.1501662 L70.9414522,17.0718549 C70.106133,16.9413362 69.792887,16.8108174 69.792887,16.2365348 L69.792887,12.7386318 C70.2627546,12.9474618 70.7848306,12.9996694 71.4374235,12.9996694 C75.1441527,12.9996694 75.9011654,10.5459165 75.9011654,8.97969128 C75.9011654,7.62229609 75.2224639,5.79503333 71.5157348,5.79503333 C70.5498968,5.79503333 69.5057448,5.84724083 68.7748406,5.84724083 C68.0178327,5.84724083 66.4777103,5.79503333 66.086154,5.79503333 L66.0339465,5.82113708 L66.0339465,6.42152342 C66.0339465,6.47373092 66.0600502,6.55204218 66.2166728,6.55204218 C67.4435482,6.63035344 67.782898,6.6564572 67.782898,7.46567356 L67.782898,16.2365348 M85.7816933,5.84724083 L80.9263951,5.84724083 L79.0469249,5.84724083 L76.4365495,5.79503333 L76.4104458,5.84724083 L76.4104458,6.42152342 C76.4104458,6.44762717 76.4104458,6.49983468 76.5670683,6.52593843 L77.1674546,6.57814594 C77.8983588,6.63035344 78.2116048,6.78697597 78.2116048,7.3873623 L78.2116048,16.2887423 C78.2116048,16.8108174 77.97667,17.0196474 77.1674546,17.0979587 L76.5670683,17.1501662 C76.4365495,17.1501662 76.4104458,17.2284775 76.4104458,17.280685 L76.4104458,17.8549675 L76.4365495,17.9071751 L79.0208211,17.8549675 L85.9122121,17.8549675 C85.9644196,17.0196474 86.1471459,15.9493935 86.4603909,14.6703096 L85.8077971,14.5919983 C85.390137,15.9232898 84.8158525,16.9674399 83.2235255,16.9674399 L80.9786027,16.9674399 C80.5087351,16.9674399 80.2215938,16.8369211 80.2215938,16.3409498 L80.2215938,11.981623 L82.1793753,11.981623 C82.858072,11.981623 83.0930067,12.2687642 83.1974217,12.7908393 L83.3279405,13.3651219 C83.3279405,13.4434332 83.380148,13.4956407 83.5106668,13.4956407 L83.9544306,13.4956407 L84.0066381,13.4434332 C83.9544306,12.8430468 83.8500156,12.294868 83.8500156,11.6422742 C83.8500156,11.0157841 83.9544306,10.284879 84.0066381,9.71059638 C84.0066381,9.65838888 84.0066381,9.63228512 83.9544306,9.63228512 L83.5106668,9.63228512 C83.4062518,9.63228512 83.3540442,9.68449263 83.3540442,9.76280389 L83.1974217,10.3109827 C83.0930067,10.8330578 82.9102795,11.1463028 82.1793753,11.1463028 L80.2215938,11.1463028 L80.2215938,7.28294729 C80.2215938,6.83918347 80.4826313,6.73476846 80.9786027,6.73476846 L83.066903,6.73476846 C84.7375413,6.73476846 85.2335145,8.11826741 85.494552,9.05800254 L86.1471459,8.97969128 C85.9644196,7.98774864 85.8077971,6.96970224 85.7816933,5.84724083 M81.5528852,0.0522075074 C81.4484702,0.0261037537 81.2918477,-3.55271368e-15 81.1613289,-3.55271368e-15 C80.2738023,-3.55271368e-15 79.673415,0.443763813 79.4645849,0.600386336 L79.4123774,0.887527626 L82.3882054,3.73283678 C82.8058644,4.12439309 82.9885917,4.25491186 83.1452142,4.25491186 C83.3540442,4.25491186 83.5367705,4.09828933 83.5367705,3.96777057 C83.5367705,3.78504429 83.5106668,3.60231801 83.380148,3.34128048 L81.5528852,0.0522075074 M87.2719064,17.3067887 L87.2719064,17.8549675 L87.2980101,17.9071751 C87.2980101,17.9071751 89.2818954,17.8549675 90.065008,17.8549675 C90.8742244,17.8549675 91.7878558,17.9071751 93.8761561,17.9071751 C96.7736631,17.9071751 100.010538,16.5497799 100.010538,11.981623 C100.010538,8.50982371 97.8700207,5.79503333 93.5107035,5.79503333 C92.8320059,5.79503333 90.5609793,5.84724083 90.065008,5.84724083 C89.5951404,5.84724083 87.2980101,5.79503333 87.2980101,5.79503333 L87.2719064,5.84724083 L87.2719064,6.42152342 C87.2719064,6.49983468 87.3502176,6.55204218 87.4546326,6.55204218 L88.0289152,6.60424969 C88.8903391,6.68256095 89.0730654,6.68256095 89.0730654,7.36125855 L89.0730654,15.9754973 C89.0730654,16.7847136 88.8120278,17.0196474 88.0289152,17.0979587 L87.4285289,17.1501662 C87.3241139,17.1501662 87.2719064,17.2284775 87.2719064,17.3067887 M91.0830544,15.9754973 L91.0830544,7.36125855 C91.0830544,6.70866471 91.7356483,6.55204218 92.7536946,6.55204218 C97.1391156,6.55204218 97.7395116,9.71059638 97.7395116,12.4253868 C97.7395116,16.0799123 96.1210692,17.1501662 93.249666,17.1501662 C91.2657807,17.1501662 91.0830544,16.7064024 91.0830544,15.9754973 M104.774725,7.41346606 C104.774725,6.89139098 105.061866,6.68256095 105.871082,6.60424969 L106.419261,6.55204218 C106.523676,6.55204218 106.575884,6.49983468 106.575884,6.42152342 L106.575884,5.84724083 L106.54978,5.79503333 C106.54978,5.79503333 104.539791,5.84724083 103.834989,5.84724083 C103.025773,5.84724083 100.963577,5.79503333 100.963577,5.79503333 L100.937473,5.84724083 L100.937473,6.44762717 C100.937473,6.52593843 101.015784,6.55204218 101.120199,6.55204218 L101.642274,6.60424969 C102.451491,6.68256095 102.764736,6.83918347 102.764736,7.41346606 L102.764736,16.106016 C102.764736,16.6019874 102.503698,17.0196474 101.642274,17.0979587 L101.120199,17.1501662 C101.015784,17.1501662 100.937473,17.2023737 100.937473,17.3067887 L100.937473,17.8549675 L100.98968,17.9071751 C100.98968,17.9071751 103.025773,17.8549675 103.756678,17.8549675 C104.565895,17.8549675 106.54978,17.9071751 106.54978,17.9071751 L106.575884,17.8549675 L106.575884,17.3067887 C106.575884,17.2023737 106.497572,17.1501662 106.419261,17.1501662 L105.871082,17.0979587 C105.035762,17.0196474 104.774725,16.6802986 104.774725,16.106016 L104.774725,7.41346606 M118.042218,0.991942641 C118.042218,0.939735134 118.016115,0.91363138 117.937803,0.91363138 C117.49404,0.991942641 117.337417,1.0180464 116.710927,1.0180464 L110.132781,1.0180464 C109.42798,1.0180464 106.791501,0.991942641 106.791501,0.991942641 L106.739293,1.0180464 L106.739293,1.54012147 C106.739293,1.61843273 106.765397,1.72284775 106.948123,1.72284775 L107.731236,1.77505525 C108.723178,1.85336651 109.062527,2.0883003 109.062527,2.89751666 L109.062527,15.9754973 C109.062527,16.7064024 108.749282,17.0196474 107.731236,17.0979587 L106.948123,17.1501662 C106.791501,17.1501662 106.739293,17.2545812 106.739293,17.3328925 L106.739293,17.8549675 L106.791501,17.9071751 L110.132781,17.8549675 L115.692881,17.8549675 C116.945861,17.8549675 119.034161,17.9071751 119.034161,17.9071751 L120,13.5478482 L119.190784,13.4173294 C118.668709,15.2967997 117.650662,16.8369211 115.666777,16.8369211 L112.116666,16.8369211 C111.542384,16.8369211 111.176931,16.6802986 111.176931,15.9754973 L111.176931,9.42345509 L114.492108,9.42345509 C115.379636,9.42345509 115.745088,9.65838888 115.797296,10.4153977 L115.849503,11.0940953 C115.849503,11.1724066 115.927814,11.2768216 116.058333,11.2768216 L116.65872,11.2768216 L116.737031,11.1985103 C116.737031,11.1985103 116.632616,9.71059638 116.632616,8.82306876 C116.632616,7.96164488 116.737031,6.57814594 116.737031,6.57814594 C116.737031,6.52593843 116.710927,6.47373092 116.632616,6.47373092 L116.058333,6.47373092 C115.953918,6.47373092 115.875607,6.57814594 115.875607,6.68256095 L115.797296,7.3351548 C115.718984,8.0660599 115.405739,8.43151245 114.492108,8.43151245 L111.176931,8.43151245 L111.176931,2.89751666 C111.176931,2.27102657 111.490176,2.06219654 112.116666,2.06219654 L114.857561,2.06219654 C116.815342,2.06219654 117.28521,3.10634669 117.859492,4.9075057 L118.616501,4.77698693 C118.485982,3.70673303 118.094426,1.20077267 118.042218,0.991942641" id="roa-tara-wordmark" fill="#000000" fill-rule="nonzero"></path>
    </g>
</svg>

<svg xmlns="http://www.w3.org/2000/svg" width="120" height="19"><path fill="#000" fill-rule="nonzero" d="m17.202.966.053.052v.496c0 .13-.079.209-.21.209l-.678.052c-1.07.078-1.436.47-1.436 1.2v7.18c0 4.646-1.2 7.961-6.552 7.961-2.349 0-6.056-1.096-6.056-6.422v-8.77c0-.81-.391-1.07-1.41-1.149L.21 1.723A.206.206 0 0 1 0 1.514v-.496L.052.966s2.271.052 3.29.052c.313 0 .791-.006 1.29-.013l.376-.007a421.64 421.64 0 0 0 1.7-.032l.053.052v.496c0 .13-.078.209-.209.209l-.679.052c-1.07.078-1.435.418-1.435 1.149v8.141c.002 1.63.063 3.355 1.383 4.676.783.757 1.854 1.305 3.106 1.305 4.412 0 4.804-3.498 4.804-6.422V2.976c0-.81-.366-1.123-1.41-1.2l-.705-.053a.206.206 0 0 1-.209-.209v-.496l.053-.052s.75.021 1.558.036l.348.007c.348.005.687.009.965.009.256 0 .586-.004.93-.01l.348-.006c.811-.015 1.593-.036 1.593-.036Zm-1.235 4.829s2.062.052 2.871.052c.705 0 2.715-.052 2.715-.052l.026.052v.575c0 .078-.052.13-.156.13l-.548.052c-.81.079-1.097.287-1.097.81v8.692c0 .574.261.914 1.097.992l.548.052c.078 0 .156.052.156.157v.548l-.026.052s-1.984-.052-2.793-.052c-.73 0-2.767.052-2.767.052l-.052-.052v-.548c0-.105.078-.157.183-.157l.522-.052c.861-.078 1.122-.496 1.122-.992V7.413c0-.574-.313-.73-1.122-.809l-.522-.052c-.105 0-.183-.026-.183-.104v-.6Zm11.894 12.321c2.036 0 3.289-.757 4.516-2.402l-.522-.417c-1.201 1.41-2.115 1.931-3.864 1.931-3.158 0-4.098-2.897-4.098-5.481 0-4.386 2.036-5.404 3.994-5.404 2.27 0 3.42 1.253 3.733 3.08l.678-.078c-.156-1.07-.287-2.166-.313-3.341-.992 0-2.167-.418-4.255-.418-3.446 0-6.108 2.61-6.108 6.422 0 3.002 2.219 6.108 6.239 6.108m11.88 0c2.037 0 3.29-.757 4.517-2.402l-.522-.417c-1.201 1.41-2.115 1.931-3.864 1.931-3.158 0-4.098-2.897-4.098-5.481 0-4.386 2.036-5.404 3.994-5.404 2.27 0 3.42 1.253 3.733 3.08l.678-.078c-.156-1.07-.287-2.166-.313-3.341-.992 0-2.166-.418-4.255-.418-3.445 0-6.108 2.61-6.108 6.422 0 3.002 2.219 6.108 6.239 6.108m15.431-1.853c0 .522-.34.757-1.122.835l-.522.052c-.105 0-.157.078-.157.157v.548l.026.052s1.984-.052 2.715-.052c.783 0 2.845.052 2.845.052l.052-.052v-.548c0-.079-.078-.157-.182-.157l-.523-.052c-.835-.078-1.122-.261-1.122-.835V7.36c0-.522.261-.678 1.122-.757l.523-.052c.104 0 .156-.052.156-.157v-.548l-.026-.052s-2.088.052-2.82.052c-.808 0-2.74-.052-2.74-.052l-.052.052v.548c0 .105.078.157.183.157l.522.052c.783.079 1.122.183 1.122.757v3.942h-6.082V7.36c0-.522.313-.678 1.096-.757l.548-.052c.105 0 .157-.052.157-.157v-.548l-.026-.052s-2.088.052-2.793.052c-.81 0-2.767-.052-2.767-.052l-.052.052v.548c0 .105.078.157.182.157l.522.052c.836.079 1.123.183 1.123.757v8.902c0 .522-.235.757-1.123.835l-.522.052c-.104 0-.182.078-.182.157v.548l.052.052s2.036-.052 2.767-.052c.783 0 2.793.052 2.793.052l.026-.052v-.548a.168.168 0 0 0-.157-.157l-.548-.052c-.809-.078-1.096-.261-1.096-.835v-4.15h6.082v4.15m8.348-8.85c0-.522.287-.73 1.097-.809l.548-.052c.104 0 .156-.052.156-.13v-.575l-.026-.052s-2.01.052-2.715.052c-.809 0-2.87-.052-2.87-.052l-.027.052v.6c0 .079.078.105.183.105l.522.052c.809.079 1.122.235 1.122.81v8.692c0 .496-.26.914-1.122.992l-.522.052c-.105 0-.183.052-.183.157v.548l.052.052s2.036-.052 2.767-.052c.81 0 2.793.052 2.793.052l.026-.052v-.548c0-.105-.078-.157-.156-.157l-.548-.052c-.836-.078-1.097-.418-1.097-.992V7.413m6.272.053c0-.679.313-.914 1.566-.914 1.436 0 2.454.496 2.454 2.74 0 2.01-.757 2.95-2.323 2.95-.522 0-1.175-.025-1.697-.234V7.466m-2.01 8.77c0 .497-.261.731-1.07.836l-.549.078c-.104.026-.156.052-.156.157v.548l.026.052s1.958-.052 2.689-.052c.809 0 2.897.052 2.897.052l.026-.052v-.548c0-.105-.078-.13-.182-.157l-.523-.078c-.835-.13-1.148-.261-1.148-.835v-3.498c.47.208.992.26 1.644.26 3.707 0 4.464-2.453 4.464-4.02 0-1.357-.679-3.184-4.385-3.184-.966 0-2.01.052-2.741.052-.757 0-2.297-.052-2.689-.052l-.052.026v.6c0 .053.026.131.183.131 1.227.078 1.566.104 1.566.914v8.77M85.782 5.848h-6.736l-2.61-.052-.026.052v.575c0 .026 0 .078.157.104l.6.052c.731.052 1.045.209 1.045.81v8.9c0 .523-.235.732-1.045.81l-.6.052c-.13 0-.157.078-.157.13v.575l.027.052 2.584-.052h6.891c.052-.835.235-1.906.548-3.185l-.652-.078c-.418 1.331-.992 2.375-2.584 2.375h-2.245c-.47 0-.757-.13-.757-.626v-4.36h1.957c.68 0 .914.288 1.018.81l.13.574c0 .078.053.13.184.13h.443l.053-.052c-.053-.6-.157-1.148-.157-1.8 0-.627.104-1.358.157-1.932 0-.053 0-.079-.053-.079h-.443c-.105 0-.157.052-.157.13l-.157.549c-.104.522-.287.835-1.018.835h-1.957V7.283c0-.444.26-.548.757-.548h2.088c1.67 0 2.167 1.383 2.428 2.323l.652-.078c-.183-.992-.34-2.01-.365-3.133M81.552.052a1.776 1.776 0 0 0-.39-.052c-.888 0-1.489.444-1.697.6l-.053.288 2.976 2.845c.418.391.6.522.757.522.209 0 .392-.157.392-.287 0-.183-.026-.366-.157-.627L81.553.052m5.719 17.255v.548l.026.052s1.984-.052 2.767-.052c.81 0 1.723.052 3.811.052 2.898 0 6.135-1.357 6.135-5.925 0-3.472-2.141-6.187-6.5-6.187-.679 0-2.95.052-3.446.052-.47 0-2.767-.052-2.767-.052l-.026.052v.575c0 .078.078.13.183.13l.574.052c.861.079 1.044.079 1.044.757v8.614c0 .81-.261 1.045-1.044 1.123l-.6.052c-.105 0-.157.078-.157.157m3.811-1.332V7.361c0-.652.653-.809 1.67-.809 4.386 0 4.987 3.159 4.987 5.873 0 3.655-1.619 4.725-4.49 4.725-1.984 0-2.167-.444-2.167-1.175m13.692-8.562c0-.522.287-.73 1.096-.809l.548-.052c.105 0 .157-.052.157-.13v-.575l-.026-.052s-2.01.052-2.715.052c-.81 0-2.871-.052-2.871-.052l-.027.052v.6c0 .079.079.105.183.105l.522.052c.81.079 1.123.235 1.123.81v8.692c0 .496-.261.914-1.123.992l-.522.052c-.104 0-.183.052-.183.157v.548l.053.052s2.036-.052 2.767-.052c.809 0 2.793.052 2.793.052l.026-.052v-.548c0-.105-.078-.157-.157-.157l-.548-.052c-.835-.078-1.096-.418-1.096-.992V7.413M118.042.992c0-.052-.026-.078-.104-.078-.444.078-.6.104-1.227.104h-6.578c-.705 0-3.341-.026-3.341-.026l-.053.026v.522c0 .078.026.183.21.183l.782.052c.992.078 1.332.313 1.332 1.123v13.077c0 .731-.314 1.045-1.332 1.123l-.783.052c-.156 0-.209.105-.209.183v.522l.053.052 3.34-.052h5.56c1.254 0 3.342.052 3.342.052l.966-4.36-.81-.13c-.521 1.88-1.54 3.42-3.523 3.42h-3.55c-.575 0-.94-.157-.94-.862V9.423h3.315c.888 0 1.253.235 1.305.992l.053.68c0 .077.078.182.208.182h.6l.079-.078s-.104-1.488-.104-2.376c0-.861.104-2.245.104-2.245 0-.052-.026-.104-.104-.104h-.575c-.104 0-.182.104-.182.209l-.079.652c-.078.731-.391 1.097-1.305 1.097h-3.315V2.898c0-.627.313-.836.94-.836h2.74c1.958 0 2.428 1.044 3.002 2.846l.758-.131c-.131-1.07-.523-3.576-.575-3.785"/></svg>
